X:7
T:Jingling Johnny.2voices. AJH.007
T:Kate Dalrymple,aka.2voices. AJH.007
M:4/4
L:1/8
Q:1/2=100
S:A.J.Hughes MS
O:England
A:North Shropshire
Z:Neil Brookes 2006
V:1 clef=treble
V:2 clef=bass
%%staves {1 2}
K:D
[V:1] d2 df e2 eg | d2df e2eg | d2d’2 a2gf | efge f2d2 ||
[V:2] D,2 D,F, E,2 E,G, | D,2D,F, E,2 E,G, |\
D,2D2 A,2 G,F, | E,F,G,E, F,2D,2 ||
%
[V:1] a2a2 a2 (3fga | a2a2 a2gf | a2d’2 a2d’2 | a2a2 a2gf |
[V:2] A,2A,2 A,2 (3F,G,A, | A,2A,2 A,2G,F, |\
A,2D,2 A,2D,2 | A,2A,2 A,2G,F, |
%
[V:1] g2ga f2fg | e2ef e2f2 | d2d’2 a2gf | efgef2d2|]
[V:2] G,2G,A, F,2F,G, | E,2E,F, E,2F,2 |\
D,2D2 A,2G,F, | E,F,G,E, F,2[D,2D,,2]|]

